packages/symbols/svgs/duotone/backward-step-duotone.svg

<svg width="24" height="24" viewBox="0 0 24 24" fill="none" xmlns="http://www.w3.org/2000/svg">
<path fill-rule="evenodd" clip-rule="evenodd" d="M20.4472 2.10558C20.786 2.27497 21 2.62123 21 3.00001V21C21 21.3788 20.786 21.725 20.4472 21.8944C20.1084 22.0638 19.703 22.0273 19.4 21.8L7.4 12.8C7.14819 12.6112 7 12.3148 7 12C7 11.6852 7.14819 11.3889 7.4 11.2L19.4 2.20001C19.703 1.97274 20.1084 1.93619 20.4472 2.10558ZM9.66667 12L19 19V5.00001L9.66667 12Z" fill="black"/>
<path opacity="0.5" fill-rule="evenodd" clip-rule="evenodd" d="M4 2C4.55228 2 5 2.44772 5 3V21C5 21.5523 4.55228 22 4 22C3.44772 22 3 21.5523 3 21V3C3 2.44772 3.44772 2 4 2Z" fill="black"/>
</svg>

<svg width="24" height="24" viewBox="0 0 24 24" xmlns="http://www.w3.org/2000/svg"><path fill-rule="evenodd" clip-rule="evenodd" d="M20.447 2.106A1 1 0 0 1 21 3v18a1 1 0 0 1-1.6.8l-12-9a1 1 0 0 1 0-1.6l12-9a1 1 0 0 1 1.047-.094ZM9.667 12 19 19V5l-9.333 7Z"/><path opacity=".5" fill-rule="evenodd" clip-rule="evenodd" d="M4 2a1 1 0 0 1 1 1v18a1 1 0 1 1-2 0V3a1 1 0 0 1 1-1Z"/></svg>
